assets/images/icons/chevron-left.svg

<svg viewBox="0 0 7 11" fill="none" xmlns="http://www.w3.org/2000/svg">
<path d="M5.8903 0.0830292C5.77591 -0.0276764 5.59044 -0.0276764 5.47605 0.0830292L0.0857947 5.29955C-0.0285979 5.41025 -0.0285984 5.58974 0.0857942 5.70045L5.47605 10.917C5.59044 11.0277 5.77591 11.0277 5.8903 10.917L6.91421 9.92606C7.0286 9.81536 7.0286 9.63587 6.91421 9.52516L2.75498 5.5L6.91421 1.47483C7.0286 1.36413 7.0286 1.18464 6.91421 1.07393L5.8903 0.0830292Z" fill="#444444"/>
</svg>

<svg viewBox="0 0 7 11" fill="none" xmlns="http://www.w3.org/2000/svg"><path d="M5.89.083a.3.3 0 0 0-.414 0L.086 5.3a.277.277 0 0 0 0 .4l5.39 5.217a.3.3 0 0 0 .414 0l1.024-.99a.277.277 0 0 0 0-.402L2.755 5.5l4.16-4.025a.277.277 0 0 0 0-.401L5.89.083z" fill="#444"/></svg>
